X:1
T:Pearly Gate, 88.88.88
T:Pearly Gate, 88.88.88
T:Asa Hull, 1872
T:Public Domain, Courtesy of the Cyber Hymnal™
C:Asa Hull, 1872
Z:Public Domain,
Z:Courtesy of the Cyber Hymnal™
%%score ( 1 2 ) ( 3 4 )
L:1/8
Q:1/4=95
M:3/4
K:A
V:1 treble 
V:2 treble 
V:3 bass 
V:4 bass 
V:1
 E2 | [EA][EB] [Ec]3 [EA] | [EB][Ec] [EA]2 [Ac]2 | [Gd][Ac] [EB]3 [^DA] | %4
 [EG][^DF] !fermata!E2 [=DE]2 | [CE][CA] [Ec]3 [EA] | [FB][FA] [DF]3 [FA] | [EG][DF] [CE]3 [CA] | %8
 [Ec][DB] !fermata![CA]3 [Ec] | [Ec][Ec] [^Ec]3 [FA] | [FB][FA] [DF]3 [FA] | [EG][DF] [CE]3 [CA] | %12
 [Ec][DB] !fermata![CA]2 |] %13
V:2
 E2 | x6 | x6 | x6 | x2 E2 x2 | x6 | x6 | x6 | x6 | x6 | x6 | x6 | x4 |] %13
V:3
 E,2 | [C,A,][E,G,] A,3 [A,C] | [E,D][E,E] [A,C]2 [A,E]2 | [B,E][A,E] [G,E]3 [F,B,] | %4
 [E,B,][B,,A,] !fermata![E,G,]2 [E,G,]2 | [A,,A,][A,,A,] [A,,A,]3 [C,E] | %6
 [D,D][D,D] [D,A,]3 [D,A,] | [D,A,][D,A,] [E,A,]3 [E,A,] | [E,A,][E,G,] !fermata![A,,A,]3 [A,,A,] | %9
 [A,,A,][A,,A,] [C,G,]3 [F,A,] | [D,D][D,D] [D,A,]3 [D,A,] | [D,A,][D,A,] [E,A,]3 [E,A,] | %12
 [E,A,][E,G,] [A,,A,]2 |] %13
V:4
 E,2 | x2 A,3 x | x6 | x6 | x6 | x6 | x6 | x6 | x6 | x6 | x6 | x6 | x4 |] %13

